X:10
T:Maggie Brown's Favourite
T:Maggie Brown's
T:Maggie Brown's Favorite
T:Margrett Brown's Favourite
T:Miss Brown's Fancy
T:Miss Browns Fancy
T:Miss Margaret Brown's Favourite
T:Planxty Brown
T:Planxty Browne
M:6/8
L:1/8
R:jig
K:Gmaj
dBG GAB|E2E E2c|AFD DEF|G2G G2g|
dBG Bcd|E2E E2c|AFD DEF|GBA G3:|
bgb afd|efg gfe|dBg dBG|AFD Dga|
bgb afd|efg gfe|faf ge^c|d3 de=f|
ece dBd|cac BgB|Ace dBG|FAF DEF|
GAB EFG|ABc def|gdB cAF|G3 G2g||
W:Variation from ceolachan
K: Gmaj
dBG GAB | E3 E2 c | AFD DEF | G3 G2 g |
dBG Bcd | E3 E2 c | AFD DEF | G3 G2 :|
bgb afd | efg gfe | dBg dBG | AFD D2 g/a/ |
bgb afd | efg gfe | faf ge^c |d3 de=f |
ece dBd | cac BgB | Ace dBG | F2 F DEF |
GAB EFG | ABc def | gdB cAF | G3 G2 :|

